lock-alert-outline.svg

<svg fill="currentColor" viewBox="0 0 24 24"><path d="M10 17c-1.1 0-2-.9-2-2s.9-2 2-2 2 .9 2 2-.9 2-2 2m6 3V10H4v10zm0-12c1.1 0 2 .9 2 2v10c0 1.1-.9 2-2 2H4c-1.1 0-2-.9-2-2V10c0-1.1.9-2 2-2h1V6c0-2.8 2.2-5 5-5s5 2.2 5 5v2zm-6-5C8.3 3 7 4.3 7 6v2h6V6c0-1.7-1.3-3-3-3m12 4h-2v6h2zm0 8h-2v2h2z"/></svg>

<svg  viewBox="0 0 24 24" fill="currentColor"><path  d="M10 17C8.9 17 8 16.1 8 15C8 13.9 8.9 13 10 13C11.1 13 12 13.9 12 15S11.1 17 10 17M16 20V10H4V20H16M16 8C17.1 8 18 8.9 18 10V20C18 21.1 17.1 22 16 22H4C2.9 22 2 21.1 2 20V10C2 8.9 2.9 8 4 8H5V6C5 3.2 7.2 1 10 1S15 3.2 15 6V8H16M10 3C8.3 3 7 4.3 7 6V8H13V6C13 4.3 11.7 3 10 3M22 7H20V13H22V7M22 15H20V17H22V15Z"/></svg>
